X: 01068
T: LINDA O'NEIL
C: Bob McQuillen Dec'75
B: Bob's Note Book 1 #68
%R: jig
Z: 2019 John Chambers <jc:trillian.mit.edu>
M: 6/8
L: 1/8
K: G
d \
| Bdd gdd | cde dBG | Bdd gde | dBG A2G |\
| Bdd gdd | cde dBA | GAB AGE | DGG G2 :|
|: E \
| DGB AGA | BdB AGE | DGB AGA | Bee e2d |\
| GAB AGA | BAG EDE | GAB AGA | BGG G2 :|
%%begintext align
%% For the lovely Linda ...
%%endtext

%%sep 1 1 500

%%sep 1 1 500

